X: 43070
T: Wind That Shakes The Barley, The
R: reel
M: 4/4
K: Dmajor
|A3B AFEF|DBBA BcdB|A3B A2 (3Bcd|fded BcdB|
A3B AFEF|DBBA BcdB|A3B ABde|(3gfe fd Bcde||
f3d g3e|f3d Bcde|f3d a3b|afed Bcde|
f3d g3e|f3d Bcdc|defg a3b|afed BcdB||

